svgs/sharp-solid/crosshairs-simple.svg

<svg xmlns="http://www.w3.org/2000/svg" viewBox="0 0 512 512"><!--! Font Awesome Pro 6.6.0 by @fontawesome - https://fontawesome.com License - https://fontawesome.com/license (Commercial License) Copyright 2024 Fonticons, Inc. --><path d="M445.3 224L384 224l-32 0 0 64 32 0 61.3 0C431.9 368.4 368.4 431.9 288 445.3l0-61.3 0-32-64 0 0 32 0 61.3C143.6 431.9 80.1 368.4 66.7 288l61.3 0 32 0 0-64-32 0-61.3 0C80.1 143.6 143.6 80.1 224 66.7l0 7.3 0 54.1 0 32 64 0 0-32 0-54.1 0-7.3C368.4 80.1 431.9 143.6 445.3 224zM256 512A256 256 0 1 0 256 0a256 256 0 1 0 0 512z"/></svg>

<svg xmlns="http://www.w3.org/2000/svg" viewBox="0 0 512 512"><!--! Font Awesome Pro 6.4.0 by @fontawesome - https://fontawesome.com License - https://fontawesome.com/license (Commercial License) Copyright 2023 Fonticons, Inc. --><path d="M445.3 224H384 352v64h32 61.3C431.9 368.4 368.4 431.9 288 445.3V384 352H224v32 61.3C143.6 431.9 80.1 368.4 66.7 288H128h32V224H128 66.7C80.1 143.6 143.6 80.1 224 66.7l0 7.3 0 54.1 0 32 64 0 0-32 0-54.1 0-7.3C368.4 80.1 431.9 143.6 445.3 224zM256 512A256 256 0 1 0 256 0a256 256 0 1 0 0 512z"/></svg>
